ui/public/tech-icons/shiki.svg

<svg width="266" height="266" viewBox="0 0 266 266" fill="none" xmlns="http://www.w3.org/2000/svg">
<g>
<circle cx="219.5" cy="46.5" r="46.5" fill="#CB7676"/>
<rect y="48" width="266" height="65" fill="#4B9978"/>
<path d="M109.463 144.426C109.012 138.792 106.899 134.397 103.124 131.242C99.4052 128.086 93.7426 126.509 86.1361 126.509C81.2905 126.509 77.3182 127.1 74.2192 128.284C71.1766 129.411 68.9228 130.96 67.4579 132.932C65.9929 134.904 65.2323 137.158 65.1759 139.693C65.0632 141.778 65.4295 143.666 66.2747 145.356C67.1762 146.99 68.5848 148.483 70.5005 149.835C72.4162 151.131 74.8672 152.315 77.8535 153.385C80.8397 154.456 84.3894 155.414 88.5026 156.259L102.701 159.301C112.28 161.33 120.478 164.006 127.296 167.33C134.113 170.655 139.692 174.571 144.03 179.078C148.369 183.529 151.552 188.544 153.58 194.122C155.665 199.7 156.736 205.785 156.792 212.378C156.736 223.759 153.89 233.394 148.256 241.283C142.621 249.171 134.564 255.171 124.084 259.285C113.66 263.398 101.124 265.454 86.4742 265.454C71.4302 265.454 58.3019 263.229 47.0893 258.778C35.9331 254.326 27.2561 247.48 21.0582 238.24C14.9166 228.943 11.8177 217.054 11.7613 202.574H56.3862C56.6679 207.87 57.992 212.321 60.3585 215.928C62.725 219.534 66.0493 222.266 70.3315 224.126C74.67 225.985 79.8255 226.915 85.798 226.915C90.8127 226.915 95.0104 226.295 98.391 225.055C101.772 223.816 104.335 222.097 106.082 219.9C107.829 217.702 108.73 215.195 108.787 212.378C108.73 209.73 107.857 207.419 106.167 205.447C104.533 203.419 101.828 201.616 98.053 200.038C94.2779 198.404 89.1787 196.883 82.7554 195.474L65.514 191.756C50.1883 188.431 38.1024 182.881 29.2563 175.106C20.4666 167.274 16.0999 156.597 16.1562 143.074C16.0999 132.087 19.0298 122.48 24.946 114.254C30.9185 105.971 39.1729 99.5197 49.7094 94.8995C60.3021 90.2793 72.4444 87.9691 86.1361 87.9691C100.11 87.9691 112.195 90.3074 122.394 94.984C132.592 99.6606 140.452 106.253 145.974 114.761C151.552 123.213 154.369 133.101 154.426 144.426H109.463Z" fill="#83D0DA"/>
<rect x="217" width="266" height="65" transform="rotate(90 217 0)" fill="#E6CC78"/>
</g>
</svg>

<svg xmlns="http://www.w3.org/2000/svg" fill="none" viewBox="0 0 266 266"><circle cx="219.5" cy="46.5" r="46.5" fill="#CB7676"/><path fill="#4B9978" d="M0 48h266v65H0z"/><path fill="#83D0DA" d="M109.463 144.426c-.451-5.634-2.564-10.029-6.339-13.184-3.719-3.156-9.381-4.733-16.988-4.733-4.846 0-8.818.591-11.917 1.775-3.042 1.127-5.296 2.676-6.761 4.648-1.465 1.972-2.226 4.226-2.282 6.761-.113 2.085.254 3.973 1.099 5.663.901 1.634 2.31 3.127 4.225 4.479 1.916 1.296 4.367 2.48 7.353 3.55 2.987 1.071 6.536 2.029 10.65 2.874l14.198 3.042c9.579 2.029 17.777 4.705 24.595 8.029 6.817 3.325 12.396 7.241 16.734 11.748 4.339 4.451 7.522 9.466 9.55 15.044 2.085 5.578 3.156 11.663 3.212 18.256-.056 11.381-2.902 21.016-8.536 28.905-5.635 7.888-13.692 13.888-24.172 18.002-10.424 4.113-22.96 6.169-37.61 6.169-15.044 0-28.172-2.225-39.385-6.676-11.156-4.452-19.833-11.298-26.03-20.538-6.142-9.297-9.241-21.186-9.298-35.666h44.625c.282 5.296 1.606 9.747 3.972 13.354 2.367 3.606 5.691 6.338 9.974 8.198 4.338 1.859 9.494 2.789 15.466 2.789 5.015 0 9.212-.62 12.593-1.86 3.381-1.239 5.944-2.958 7.691-5.155 1.747-2.198 2.648-4.705 2.705-7.522-.057-2.648-.93-4.959-2.62-6.931-1.634-2.028-4.339-3.831-8.114-5.409-3.775-1.634-8.874-3.155-15.298-4.564l-17.241-3.718c-15.326-3.325-27.412-8.875-36.258-16.65-8.79-7.832-13.156-18.509-13.1-32.032-.056-10.987 2.874-20.594 8.79-28.82 5.973-8.283 14.227-14.734 24.763-19.355 10.593-4.62 22.735-6.93 36.427-6.93 13.974 0 26.059 2.338 36.258 7.015 10.198 4.677 18.058 11.269 23.58 19.777 5.578 8.452 8.395 18.34 8.452 29.665h-44.963Z"/><path fill="#E6CC78" d="M217 0v266h-65V0z"/></svg>
